inst/assets/images/tychobra_logo_white.svg

<svg height="170.00015mm" viewBox="0 0 169.99963 170.00015" width="169.99963mm" xmlns="http://www.w3.org/2000/svg"><g fill="#fff" transform="translate(-20.000236 2.999911)"><path d="m396.84961 26.457031a283.46457 283.46457 0 0 0 -156.86523 47.554688 94.488189 94.488189 0 0 1 37.16992 32.585941 236.22047 236.22047 0 0 1 119.69531-32.896488 236.22047 236.22047 0 0 1 236.2207 236.220708 236.22047 236.22047 0 0 1 -236.2207 236.2207 236.22047 236.22047 0 0 1 -236.21875-236.2207 236.22047 236.22047 0 0 1 8.41602-61.44532 94.488189 94.488189 0 0 1 -41.13282-27.01367 283.46457 283.46457 0 0 0 -14.52734 88.45899 283.46457 283.46457 0 0 0 283.46289 283.46484 283.46457 283.46457 0 0 0 283.46484-283.46484 283.46457 283.46457 0 0 0 -283.46484-283.464849z" stroke-width="1.144236" transform="scale(.26458333)"/><circle cx="52.5" cy="-42" r="20" stroke-width=".252453" transform="scale(1 -1)"/><path d="m104.99975 44.5a37.500108 37.500106 0 0 0 -37.49975 37.500242 37.500108 37.500106 0 0 0 37.49975 37.499758 37.500108 37.500106 0 0 0 37.50025-37.499758 37.500108 37.500106 0 0 0 -37.50025-37.500242zm0 11.718797a25.781325 25.781324 0 0 1 25.78145 25.781445 25.781325 25.781324 0 0 1 -25.78145 25.780958 25.781325 25.781324 0 0 1 -25.780955-25.780958 25.781325 25.781324 0 0 1 25.780955-25.781445z" stroke-width=".250607"/></g></svg>

<?xml version="1.0" encoding="UTF-8" standalone="no"?>
<!-- Created with Inkscape (http://www.inkscape.org/) -->

<svg
   xmlns:dc="http://purl.org/dc/elements/1.1/"
   xmlns:cc="http://creativecommons.org/ns#"
   xmlns:rdf="http://www.w3.org/1999/02/22-rdf-syntax-ns#"
   xmlns:svg="http://www.w3.org/2000/svg"
   xmlns="http://www.w3.org/2000/svg"
   xmlns:sodipodi="http://sodipodi.sourceforge.net/DTD/sodipodi-0.dtd"
   xmlns:inkscape="http://www.inkscape.org/namespaces/inkscape"
   width="169.99963mm"
   height="170.00015mm"
   viewBox="0 0 169.99963 170.00015"
   version="1.1"
   id="svg8"
   inkscape:version="0.92.2 (5c3e80d, 2017-08-06)"
   sodipodi:docname="tychobra-logo-white.svg">
  <defs
     id="defs2" />
  <sodipodi:namedview
     id="base"
     pagecolor="#000"
     bordercolor="#666666"
     borderopacity="1.0"
     inkscape:pageopacity="0.0"
     inkscape:pageshadow="2"
     inkscape:zoom="0.68517767"
     inkscape:cx="264.61223"
     inkscape:cy="378.89386"
     inkscape:document-units="mm"
     inkscape:current-layer="layer1"
     showgrid="false"
     inkscape:window-width="1252"
     inkscape:window-height="675"
     inkscape:window-x="2169"
     inkscape:window-y="147"
     inkscape:window-maximized="0"
     fit-margin-top="10"
     fit-margin-right="10"
     fit-margin-bottom="10"
     fit-margin-left="10" />
  <metadata
     id="metadata5">
    <rdf:RDF>
      <cc:Work
         rdf:about="">
        <dc:format>image/svg+xml</dc:format>
        <dc:type
           rdf:resource="http://purl.org/dc/dcmitype/StillImage" />
        <dc:title></dc:title>
      </cc:Work>
    </rdf:RDF>
  </metadata>
  <g
     inkscape:label="Layer 1"
     inkscape:groupmode="layer"
     id="layer1"
     style="opacity:1"
     transform="translate(-20.000236,2.9999106)">
    <path
       style="fill:#ffffff;fill-opacity:1;stroke-width:1.14423633"
       d="M 396.84961,26.457031 A 283.46457,283.46457 0 0 0 239.98438,74.011719 94.488189,94.488189 0 0 1 277.1543,106.59766 236.22047,236.22047 0 0 1 396.84961,73.701172 236.22047,236.22047 0 0 1 633.07031,309.92188 236.22047,236.22047 0 0 1 396.84961,546.14258 236.22047,236.22047 0 0 1 160.63086,309.92188 236.22047,236.22047 0 0 1 169.04688,248.47656 94.488189,94.488189 0 0 1 127.91406,221.46289 283.46457,283.46457 0 0 0 113.38672,309.92188 283.46457,283.46457 0 0 0 396.84961,593.38672 283.46457,283.46457 0 0 0 680.31445,309.92188 283.46457,283.46457 0 0 0 396.84961,26.457031 Z"
       id="path3699"
       transform="scale(0.26458333)"
       inkscape:connector-curvature="0" />
    <circle
       style="fill:#ffffff;fill-opacity:1;stroke-width:0.25245267"
       id="path4522"
       cx="52.5"
       cy="-42"
       r="20"
       transform="scale(1,-1)" />
    <path
       style="fill:#ffffff;fill-opacity:1;stroke-width:0.25060689"
       d="M 104.99975,44.5 A 37.500108,37.500106 0 0 0 67.5,82.000242 37.500108,37.500106 0 0 0 104.99975,119.5 37.500108,37.500106 0 0 0 142.5,82.000242 37.500108,37.500106 0 0 0 104.99975,44.5 Z m 0,11.718797 A 25.781325,25.781324 0 0 1 130.7812,82.000242 25.781325,25.781324 0 0 1 104.99975,107.7812 25.781325,25.781324 0 0 1 79.218795,82.000242 25.781325,25.781324 0 0 1 104.99975,56.218797 Z"
       id="path4526"
       inkscape:connector-curvature="0" />
  </g>
</svg>
